X: 21500
T: Kickin' Up The Devil On A Holiday
R: reel
M: 4/4
K: Aminor
Ad|:c2Bd A2G2|A2D2 d2Ad|c2Bd A2G2|{EF}E2D2 D2Ad|
c2Bd A2G2|A2D2 d2Ad|cABG A2G2|{EF}E2D2 D2A,C||
|:D3G E2G2|A6 dA|cAcd c2 dA|cAcd c2AD|
D3G EG3|A2A2 d2Ad|cABG A2GD|1 {EF}E2D2 D2A,C:|2 {EF}E2D2 D2Ad||

